X:1
T:God Bless the Master
B:Bushes and Briars (Vaughan Williams), Ed Roy Palmer, ISBN 1-86143-072-8
S:Journal of the Folk Song Society III. 261-3
Z:Vaughan Williams
F:http://www.folkinfo.org/songs
M:3/2
L:1/8
K:D
D2 |(DE)(FG) A4 (B3A) |(GA) B2 A6 A2 |
w:God bless_ the_ mas-ter_ of_ this house And
M:4/4     %Meter
L:1/8     %
B2 A2 G2 B2 |
w:send him long to
A4 z2 A2 |B2 A2 G2 A2 |G2 F2 (EF) (GE) |A3 B A2 (AG) |
w:reign; Where-'er he walks, where-'er he rides,_ Lord_ Je-sus be his_
F4 (E2D2|A2E2) F2 z2 |F4 E4 |D6 z2 |]
w:guide Lord Je---sus be his guide,
